yandex-music.svg

<?xml version="1.0" encoding="UTF-8" standalone="no"?>
<svg
   width="256"
   height="256"
   viewBox="0 0 256 256"
   fill="none"
   version="1.1"
   id="svg127"
   sodipodi:docname="yandex-music.svg"
   xml:space="preserve"
   inkscape:version="1.2.1 (9c6d41e410, 2022-07-14, custom)"
   xmlns:inkscape="http://www.inkscape.org/namespaces/inkscape"
   xmlns:sodipodi="http://sodipodi.sourceforge.net/DTD/sodipodi-0.dtd"
   xmlns="http://www.w3.org/2000/svg"
   xmlns:svg="http://www.w3.org/2000/svg"><defs
     id="defs131" /><sodipodi:namedview
     id="namedview129"
     pagecolor="#ffffff"
     bordercolor="#111111"
     borderopacity="1"
     inkscape:showpageshadow="0"
     inkscape:pageopacity="0"
     inkscape:pagecheckerboard="1"
     inkscape:deskcolor="#d1d1d1"
     showgrid="true"
     inkscape:zoom="1.6089442"
     inkscape:cx="-42.885266"
     inkscape:cy="119.02215"
     inkscape:window-width="2560"
     inkscape:window-height="1371"
     inkscape:window-x="0"
     inkscape:window-y="0"
     inkscape:window-maximized="1"
     inkscape:current-layer="svg127" /><g
     id="g371"
     transform="matrix(0.93951025,0,0,0.93951025,8.3218861,8.9834217)"><path
       d="M 52.32046,25.169098 C 70.808058,11.44208 92.658755,3.1439647 115.43224,1.08203 V 38.843297 C 100.71118,40.755658 86.652025,46.403312 74.625926,55.332701 59.567524,66.513551 48.493607,82.247686 43.0379,100.21451 c -5.455859,17.96683 -5.004744,37.21481 1.286635,54.90481 6.291379,17.69059 18.089941,32.88755 33.655656,43.34746 15.565562,10.45992 34.073869,15.63036 52.795239,14.7498 18.72124,-0.88209 36.66375,-7.7694 51.18255,-19.64555 14.51728,-11.87767 24.84172,-28.11541 29.45034,-46.31847 3.21506,-12.6975 3.5288,-25.88243 1.01127,-38.5935 l 31.64499,-25.492355 -0.0214,-0.205566 c 8.54254,23.545961 9.84775,49.162071 3.68111,73.522511 -6.58395,26.00482 -21.33272,49.20161 -42.073,66.16883 -20.74027,16.96571 -46.37243,26.80449 -73.11746,28.06353 -26.74457,1.25904 -53.185137,-6.1273 -75.421763,-21.07091 C 34.875663,214.70301 18.020421,192.99417 9.0327602,167.72188 0.0450603,142.45006 -0.59931832,114.95286 7.1946614,89.286078 14.988652,63.619142 30.808327,41.141763 52.32046,25.169098 Z"
       fill="#fcca00"
       id="path123"
       style="stroke-width:1.52456" /><path
       d="m 220.20367,42.793618 0.1325,0.332691 -21.14692,33.655482 C 191.49808,65.362411 181.19344,55.857375 169.13276,49.129545 v 76.589215 c 0,23.4985 -19.0103,42.54794 -42.4609,42.54794 -23.45077,0 -42.461211,-19.04944 -42.461211,-42.54794 0,-23.49834 19.010441,-42.547628 42.461211,-42.547628 8.78864,0 16.95377,2.675718 23.72825,7.258304 V 2.8346691 c 27.5676,5.313193 51.90978,19.7093769 69.80356,39.9589489 z"
       fill="#fc3f1d"
       id="path125"
       style="stroke-width:1.52456" /></g></svg>

<svg fill="none" version="1.1" viewBox="0 0 256 256" xml:space="preserve" xmlns="http://www.w3.org/2000/svg"><g transform="matrix(.93951 0 0 .93951 8.3219 8.9834)" stroke-width="1.5246"><path d="m52.32 25.169c18.488-13.727 40.338-22.025 63.112-24.087v37.761c-14.721 1.9124-28.78 7.56-40.806 16.489-15.058 11.181-26.132 26.915-31.588 44.882-5.4559 17.967-5.0047 37.215 1.2866 54.905 6.2914 17.691 18.09 32.888 33.656 43.347 15.566 10.46 34.074 15.63 52.795 14.75 18.721-0.88209 36.664-7.7694 51.183-19.646 14.517-11.878 24.842-28.115 29.45-46.318 3.2151-12.698 3.5288-25.882 1.0113-38.594l31.645-25.492-0.0214-0.20557c8.5425 23.546 9.8478 49.162 3.6811 73.523-6.584 26.005-21.333 49.202-42.073 66.169-20.74 16.966-46.372 26.804-73.117 28.064-26.745 1.259-53.185-6.1273-75.422-21.071-22.236-14.942-39.092-36.651-48.079-61.923-8.9877-25.272-9.6321-52.769-1.8381-78.436 7.794-25.667 23.614-48.144 45.126-64.117z" fill="#fcca00"/><path d="m220.2 42.794 0.1325 0.33269-21.147 33.655c-7.6912-11.419-17.996-20.924-30.056-27.652v76.589c0 23.498-19.01 42.548-42.461 42.548-23.451 0-42.461-19.049-42.461-42.548 0-23.498 19.01-42.548 42.461-42.548 8.7886 0 16.954 2.6757 23.728 7.2583v-87.595c27.568 5.3132 51.91 19.709 69.804 39.959z" fill="#fc3f1d"/></g></svg>
